X: 16857
T: Harvey's
R: reel
M: 4/4
K: Eminor
E3G FEDF|Eeed e2fe|d~A3 BGGF-|FGGF AGFE-|
E3G FEDF|EFGE ABcB-|BAGA2GFG|zGFGE3D|
~E3F2EDF|Eeed e2fe|d~A3 BGGF-|FGGF AGFE-|
E3G FEDF|E2GE ABcB-|BAGA2 GFG|zGFG EFGB|
|:e~B3 ~g3e|edBA ABBA|GEED2EFA|BFFE2FGB|
e~B3 g2fg|edB^cd3e|d~A3 DEFG|1 zGFG EFGB:|2 zGFG E3D||

